!!!OTL: Zhenzhu dao juan lian
!!!ARE: Asia, China,ÿHeilongjiang, Hejiang
!! III, 55
!!!SCT: C1542
!!!YEM: Copyright 1995, estate of Helmut Schaffrath.
**kern
*ICvox
*Ivox
!! Mixed meters:  2/4; 3/4
*M3/4
*k[f#]
*G:
{8g
16g
16B
8d
8d
=1
8g
16e
16g
4a
=2
8dd
16gg
16ee
4dd
=3
8dd
16e
16g
16a
16a
16dd
16b
4a}
=4
*M2/4
{16a
16g#
16a
16b
8dd
8dd
=5
16e
16g
16a
16b
8g
8g
=6
8a
8dd
16b
16dd
16e
16g
=7
*M3/4
8a
16g
16e
16d
16d
16d
16e
4d}
=8
*M2/4
{16a
16a
8g
4g
=9
8a
8a
4g}
=10
{8a
8a
8dd
8dd
=11
8a
8e
4g}
=12
{8r
8a
8dd
16b
16a
=13
8a
8a
4g}
=14
{8r
8a
8g#
8a
=15
8.dd
16b
4a}
=16
{8r
8g
8e
8b
=17
8a
8dd
8f#
8e
=18
8r
16e
16g
8b
8dd
=19
8.b
16a
8a
8g}
==
!!!AGN: Xiaodiao, Shuogu tanjin
!!!AMT: irregular
!!!AIN: vox
!!!EED: Helmut Schaffrath
!!!EEV: 1.0
*-
